X: 33961
T: Redican's Mother
R: slip jig
M: 9/8
K: Dmajor
FAA FAd AFD|FAA FAd BBA|FAA FAd AFD|EDB, DFA BBA:|
f3 fed edB|Aff fef g2e|f3 fed edB|AFE DFA B2A:|

